images/Exercism_files/exercism-face-gradient-31ce1b1261c54ead735cf687a2dc8549b3d00bb1.svg

<svg fill="none" height="64" viewBox="0 0 64 64" width="64" xmlns="http://www.w3.org/2000/svg" xmlns:xlink="http://www.w3.org/1999/xlink"><linearGradient id="a"><stop offset="0" stop-color="#20f"/><stop offset="1" stop-color="#9e00ff"/></linearGradient><linearGradient id="b" gradientUnits="userSpaceOnUse" x1="32.2384" x2="32.2384" xlink:href="#a" y1="37.3815" y2="44.4901"/><linearGradient id="c" gradientUnits="userSpaceOnUse" x1="21.3839" x2="21.3839" xlink:href="#a" y1="25.953" y2="32.0748"/><linearGradient id="d" gradientUnits="userSpaceOnUse" x1="42.1578" x2="42.1578" xlink:href="#a" y1="25.953" y2="32.0748"/><linearGradient id="e" gradientUnits="userSpaceOnUse" x1="54.1665" x2="54.1665" xlink:href="#a" y1="6.07019" y2="57.0995"/><linearGradient id="f" gradientUnits="userSpaceOnUse" x1="9.93797" x2="9.93797" xlink:href="#a" y1="6" y2="57.0293"/><clipPath id="g"><path d="m2.3999 6h59.3346v51.2h-59.3346z"/></clipPath><g clip-path="url(#g)"><path d="m35.7783 38.7674c0 2.1684-1.8772 3.5234-3.5399 3.5234s-3.6574-.6737-3.6574-3.5234v-1.3859h-2.1904v1.3859c0 3.1559 2.6244 5.7227 5.8478 5.7227 3.2235 0 5.8478-2.5668 5.8478-5.7227v-1.3859h-2.3079z" fill="url(#b)"/><path d="m17.3823 32.0748c0-2.0706 1.7959-3.7546 4.0023-3.7546 2.205 0 4.0008 1.6854 4.0008 3.7546h2.521c0-3.3762-2.9241-6.1218-6.5218-6.1218-3.5976 0-6.5233 2.7456-6.5233 6.1218z" fill="url(#c)"/><path d="m38.1563 32.0748c0-2.0706 1.7958-3.7546 4.0008-3.7546 2.2064 0 4.0023 1.6854 4.0023 3.7546h2.521c0-3.3762-2.9257-6.1218-6.5233-6.1218-3.5977 0-6.5218 2.7456-6.5218 6.1218z" fill="url(#d)"/><g clip-rule="evenodd" fill-rule="evenodd"><path d="m52.7485 24.0437v-8.1372c0-2.7423-.3334-4.6449-1.0001-5.7081-.6668-1.06308-2.055-1.88276-4.1647-2.45903-.6368-.17884-.9553-.46697-.9553-.86439 0-.53653.7165-.80479 2.1495-.80479h2.1793c2.3685 0 4.1647.73523 5.3887 2.20571s1.836 3.6165 1.836 6.4383v8.5844c0 1.9871.2139 3.5172.6418 4.5902.428 1.0731 1.2191 2.0765 2.3734 3.0105.3384.2782.5075.5067.5075.6856 0 .1788-.1691.4073-.5075.6855-1.1742.9538-1.9703 1.9623-2.3883 3.0254-.4179 1.0631-.6269 2.5882-.6269 4.5754v8.5545c0 2.8416-.617 4.9976-1.851 6.4681-1.2339 1.4705-3.0251 2.2057-5.3737 2.2057h-2.1793c-.9354 0-1.5275-.0447-1.7763-.1341s-.3732-.313-.3732-.6707c0-.4967.3284-.8246.9852-.9836l1.1942-.2682c2.6271-.5962 3.9407-3.1894 3.9407-7.7796v-8.1373c0-3.0801.7463-5.2559 2.239-6.5277l.5672-.4769c.2787-.2385.418-.4173.418-.5365 0-.1391-.1393-.318-.418-.5366l-.5672-.4769c-1.4927-1.2717-2.239-3.4476-2.239-6.5277z" fill="url(#e)"/><path d="m11.356 23.9735v-8.1372c0-2.7423.3334-4.6449 1.0001-5.7081.6668-1.06307 2.055-1.88275 4.1646-2.45902.6369-.17884.9554-.46697.9554-.86439 0-.53653-.7165-.80479-2.1495-.80479h-2.1793c-2.3685 0-4.16465.73523-5.38867 2.20571s-1.83601 3.61659-1.83601 6.43829v8.5844c0 1.9871-.21396 3.5172-.64186 4.5902-.42791 1.0731-1.21903 2.0766-2.37339 3.0105-.33834.2782-.50751.5067-.50751.6856 0 .1788.16917.4073.50751.6855 1.17426.9538 1.97036 1.9623 2.38831 3.0254.41796 1.0631.62694 2.5882.62694 4.5754v8.5545c0 2.8416.61697 4.9976 1.85094 6.4681s3.02514 2.2057 5.37374 2.2057h2.1793c.9354 0 1.5275-.0447 1.7763-.1341s.3732-.313.3732-.6706c0-.4968-.3284-.8247-.9852-.9837l-1.1942-.2682c-2.6271-.5962-3.9407-3.1893-3.9407-7.7796v-8.1373c0-3.0801-.7463-5.2559-2.23902-6.5277l-.56722-.4769c-.27864-.2385-.41796-.4173-.41796-.5365 0-.1391.13932-.318.41796-.5366l.56722-.4769c1.49272-1.2717 2.23902-3.4476 2.23902-6.5277z" fill="url(#f)"/></g></g></svg>

<svg width="64" height="64" viewBox="0 0 64 64" fill="none" xmlns="http://www.w3.org/2000/svg">
<g clip-path="url(#clip0)">
<path d="M35.7783 38.7674C35.7783 40.9358 33.9011 42.2908 32.2384 42.2908C30.5757 42.2908 28.581 41.6171 28.581 38.7674V37.3815H26.3906V38.7674C26.3906 41.9233 29.015 44.4901 32.2384 44.4901C35.4619 44.4901 38.0862 41.9233 38.0862 38.7674V37.3815H35.7783V38.7674Z" fill="url(#paint0_linear)"/>
<path d="M17.3823 32.0748C17.3823 30.0042 19.1782 28.3202 21.3846 28.3202C23.5896 28.3202 25.3854 30.0056 25.3854 32.0748H27.9064C27.9064 28.6986 24.9823 25.953 21.3846 25.953C17.787 25.953 14.8613 28.6986 14.8613 32.0748H17.3823Z" fill="url(#paint1_linear)"/>
<path d="M38.1563 32.0748C38.1563 30.0042 39.9521 28.3202 42.1571 28.3202C44.3635 28.3202 46.1594 30.0056 46.1594 32.0748H48.6804C48.6804 28.6986 45.7547 25.953 42.1571 25.953C38.5594 25.953 35.6353 28.6986 35.6353 32.0748H38.1563Z" fill="url(#paint2_linear)"/>
<path fill-rule="evenodd" clip-rule="evenodd" d="M52.7485 24.0437V15.9065C52.7485 13.1642 52.4151 11.2616 51.7484 10.1984C51.0816 9.13532 49.6934 8.31564 47.5837 7.73937C46.9469 7.56053 46.6284 7.2724 46.6284 6.87498C46.6284 6.33845 47.3449 6.07019 48.7779 6.07019H50.9572C53.3257 6.07019 55.1219 6.80542 56.3459 8.2759C57.5699 9.74638 58.1819 11.8924 58.1819 14.7142V23.2986C58.1819 25.2857 58.3958 26.8158 58.8237 27.8888C59.2517 28.9619 60.0428 29.9653 61.1971 30.8993C61.5355 31.1775 61.7046 31.406 61.7046 31.5849C61.7046 31.7637 61.5355 31.9922 61.1971 32.2704C60.0229 33.2242 59.2268 34.2327 58.8088 35.2958C58.3909 36.3589 58.1819 37.884 58.1819 39.8712V48.4257C58.1819 51.2673 57.5649 53.4233 56.3309 54.8938C55.097 56.3643 53.3058 57.0995 50.9572 57.0995H48.7779C47.8425 57.0995 47.2504 57.0548 47.0016 56.9654C46.7528 56.876 46.6284 56.6524 46.6284 56.2947C46.6284 55.798 46.9568 55.4701 47.6136 55.3111L48.8078 55.0429C51.4349 54.4467 52.7485 51.8535 52.7485 47.2633V39.126C52.7485 36.0459 53.4948 33.8701 54.9875 32.5983L55.5547 32.1214C55.8334 31.8829 55.9727 31.7041 55.9727 31.5849C55.9727 31.4458 55.8334 31.2669 55.5547 31.0483L54.9875 30.5714C53.4948 29.2997 52.7485 27.1238 52.7485 24.0437Z" fill="url(#paint3_linear)"/>
<path fill-rule="evenodd" clip-rule="evenodd" d="M11.356 23.9735V15.8363C11.356 13.094 11.6894 11.1914 12.3561 10.1282C13.0229 9.06513 14.4111 8.24545 16.5207 7.66918C17.1576 7.49034 17.4761 7.20221 17.4761 6.80479C17.4761 6.26826 16.7596 6 15.3266 6H13.1473C10.7788 6 8.98265 6.73523 7.75863 8.20571C6.53461 9.67619 5.92262 11.8223 5.92262 14.644V23.2284C5.92262 25.2155 5.70866 26.7456 5.28076 27.8186C4.85285 28.8917 4.06173 29.8952 2.90737 30.8291C2.56903 31.1073 2.39986 31.3358 2.39986 31.5147C2.39986 31.6935 2.56903 31.922 2.90737 32.2002C4.08163 33.154 4.87773 34.1625 5.29568 35.2256C5.71364 36.2887 5.92262 37.8138 5.92262 39.801V48.3555C5.92262 51.1971 6.53959 53.3531 7.77356 54.8236C9.00753 56.2941 10.7987 57.0293 13.1473 57.0293H15.3266C16.262 57.0293 16.8541 56.9846 17.1029 56.8952C17.3517 56.8058 17.4761 56.5822 17.4761 56.2246C17.4761 55.7278 17.1477 55.3999 16.4909 55.2409L15.2967 54.9727C12.6696 54.3765 11.356 51.7834 11.356 47.1931V39.0558C11.356 35.9757 10.6097 33.7999 9.11698 32.5281L8.54976 32.0512C8.27112 31.8127 8.1318 31.6339 8.1318 31.5147C8.1318 31.3756 8.27112 31.1967 8.54976 30.9781L9.11698 30.5012C10.6097 29.2295 11.356 27.0536 11.356 23.9735Z" fill="url(#paint4_linear)"/>
</g>
<defs>
<linearGradient id="paint0_linear" x1="32.2384" y1="37.3815" x2="32.2384" y2="44.4901" gradientUnits="userSpaceOnUse">
<stop stop-color="#2200FF"/>
<stop offset="1" stop-color="#9E00FF"/>
</linearGradient>
<linearGradient id="paint1_linear" x1="21.3839" y1="25.953" x2="21.3839" y2="32.0748" gradientUnits="userSpaceOnUse">
<stop stop-color="#2200FF"/>
<stop offset="1" stop-color="#9E00FF"/>
</linearGradient>
<linearGradient id="paint2_linear" x1="42.1578" y1="25.953" x2="42.1578" y2="32.0748" gradientUnits="userSpaceOnUse">
<stop stop-color="#2200FF"/>
<stop offset="1" stop-color="#9E00FF"/>
</linearGradient>
<linearGradient id="paint3_linear" x1="54.1665" y1="6.07019" x2="54.1665" y2="57.0995" gradientUnits="userSpaceOnUse">
<stop stop-color="#2200FF"/>
<stop offset="1" stop-color="#9E00FF"/>
</linearGradient>
<linearGradient id="paint4_linear" x1="9.93797" y1="6" x2="9.93797" y2="57.0293" gradientUnits="userSpaceOnUse">
<stop stop-color="#2200FF"/>
<stop offset="1" stop-color="#9E00FF"/>
</linearGradient>
<clipPath id="clip0">
<rect width="59.3346" height="51.2" fill="white" transform="translate(2.3999 6)"/>
</clipPath>
</defs>
</svg>
